!!!COA:	Josquin des Prez
!!!CDT:	~1450-1521/08/27
!!!OTL@@LAT:	Sancti Dei omnes
!!!OTL2@@LAT: Christe, audi nos
!!!AGN:	Motet
!!!SCT:	NJE 26.14
!!!SCA:	New Josquin Edition 26.14
!!!voices:	4
**kern	**kern	**kern	**kern
*staff4	*staff3	*staff2	*staff1
*Ivox	*Ivox	*Ivox	*Ivox
*I"Bassus	*I"Tenor	*I"Altus	*I"Superius
*I'B	*I'T	*I'A	*I'S
*clefF4	*clefGv2	*clefGv2	*clefG2
*k[b-]	*k[b-]	*k[b-]	*k[b-]
*M2/1	*M2/1	*M2/1	*M2/1
*met(C|)	*met(C|)	*met(C|)	*met(C|)
=1-	=1-	=1-	=1-
0F	0F	0c	0f
=2	=2	=2	=2
1F	1c	1f	1a
1F	1c	1f	1a
=3	=3	=3	=3
1BB-	1d	1f	1b-
1BB-	1d	1f	1b-
=4	=4	=4	=4
1F	1c	1f	1a
1C	1c	1e	1g
=5	=5	=5	=5
1G	1B-	1d	1g
1G	1B-	1e	1b-
=6	=6	=6	=6
1.F	1c	2f\	1.a
.	.	4e\	.
.	.	4d\	.
.	2A/	2c\	.
2E-\	[2B-\	2G/	[2g/
=7	=7	=7	=7
1D	4B-\]	1B-	4g/]
.	4A/	.	4f/
.	2F/	.	1f
1C	1G	1c	.
.	.	.	2e/
=8	=8	=8	=8
2.D\	0F	1A	1.f
4C/	.	.	.
2BB-/	.	2D/	.
2AA/	.	2C/	4g/
.	.	.	4a/
=9	=9	=9	=9
1GG	1r	2D/	2.b-\
.	.	2E/	.
.	.	.	4cc\
1FF	1F	1C	1a
=10	=10	=10	=10
2r	1F	0r	0r
1BB-	.	.	.
.	1G	.	.
[2C/	.	.	.
=11	=11	=11	=11
2C/]	2.A/	0r	0r
1D	.	.	.
.	4G/	.	.
.	2F/	.	.
[2C/	2E/	.	.
=12	=12	=12	=12
2C/]	1D	0r	0r
2BB-/	.	.	.
2AA/	2C/	.	.
[2BB-/	[2G/	.	.
=13	=13	=13	=13
2BB-/]	2G/]	0r	0r
2AA/	1F	.	.
1GG	.	.	.
.	2E/	.	.
=14	=14	=14	=14
1FF	1F	2.F/	1f
.	.	4G/	.
1r	1r	4A/	1f
.	.	4F/	.
.	.	[2B-\	.
=15	=15	=15	=15
0r	0r	4B-\]	0g
.	.	4G/	.
.	.	2.c\	.
.	.	4d\	.
.	.	4e\	.
.	.	4c\	.
=16	=16	=16	=16
0r	0r	2.f\	0a
.	.	4e\	.
.	.	2d\	.
.	.	[2c\	.
=17	=17	=17	=17
0r	0r	4c\]	2.g/
.	.	4d\	.
.	.	4e\	.
.	.	4f\	4a/
.	.	2d\	4b-\
.	.	.	4cc\
.	.	[2c\	[2a/
=18	=18	=18	=18
0r	0r	2c\]	2a/]
.	.	4B-\	4g/
.	.	4A/	4f/
.	.	2G/	4e/
.	.	.	4d/
.	.	2F/	[2a/
=19	=19	=19	=19
0r	0r	2A/	4a/]
.	.	.	4g/
.	.	2B-\	1f
.	.	1G	.
.	.	.	2e/
=20	=20	=20	=20
1BB-	0r	1F	1f
1BB-	.	2r	1d
.	.	[2B-\	.
=21	=21	=21	=21
1FF	1F	2B-\]	1c
.	.	2A/	.
1BB-	1F	1B-	2r
.	.	.	[2f/
=22	=22	=22	=22
1r	1C	1G	2f/]
.	.	.	2e/
2r	1F	2A/	2.f/
2D\	.	2B-\	.
.	.	.	4d/
=23	=23	=23	=23
2C/	2r	1c	2e/
2C/	2G/	.	2e/
1BB-	1B-	1d	1f
=24	=24	=24	=24
1F	1A	[0c	0r
2E\	2G/	.	.
[2F\	[2A/	.	.
=25	=25	=25	=25
4F\]	4A/]	0c]	0r
4G\	4B-\	.	.
2A\	2c\	.	.
2F\	2A/	.	.
[2A\	[2F/	.	.
=26	=26	=26	=26
4A\]	4F/]	[0c	0r
4G\	4G/	.	.
1F	1A	.	.
4E\	4G/	.	.
4D\	4F/	.	.
=27	=27	=27	=27
[0C	1E	0c]	2r
.	.	.	1g
.	2r	.	.
.	2G/	.	4a/
.	.	.	4b-\
=28	=28	=28	=28
0C_	2G/	1c	2.cc\
.	4A/	.	.
.	4B-\	.	4b-\
.	1c	2.e\	2a/
.	.	.	[2g/
.	.	4d\	.
=29	=29	=29	=29
0C]	2A/	2c\	4g/]
.	.	.	4f/
.	4G/	2B-\	1f
.	4F/	.	.
.	1G	1c	.
.	.	.	2e/
=30	=30	=30	=30
1FF	1F	1c	1f
1r	2r	1r	1f
.	[2B-\	.	.
=31	=31	=31	=31
0r	2B-\]	0r	1f
.	1B-	.	.
.	.	.	[1g
.	[2c\	.	.
=32	=32	=32	=32
0r	2c\]	0r	1g]
.	1B-	.	.
.	.	.	1f
.	[2d\	.	.
=33	=33	=33	=33
0r	4d\]	0r	2.a/
.	4e\	.	.
.	2f\	.	.
.	.	.	4b-\
.	2e\	.	2cc\
.	2d\	.	[2dd\
=34	=34	=34	=34
0r	2B-\	0r	2dd\]
.	2c\	.	1cc
.	1d	.	.
.	.	.	2bni\
=35	=35	=35	=35
0r	0r	1f	0cc
.	.	2f\	.
.	.	2e\	.
=36	=36	=36	=36
1F	1r	1d	1r
2F\	2r	1c	2r
2E\	[2G/	.	2g/
=37	=37	=37	=37
1D	2G/]	2r	2a/
.	2F/	2B-\	4g/
.	.	.	4f/
1C	2G/	2.c\	2e/
.	2C/	.	[2g/
.	.	4d\	.
=38	=38	=38	=38
2r	2.c\	1e	2g/]
2C/	.	.	4f/
.	4B-\	.	4e/
2.D\	4A/	2.d\	[1f
.	4G/	.	.
.	[2A/	.	.
4E\	.	4c\	.
=39	=39	=39	=39
2F\	2A/]	2d\	2f/]
2C/	1G	1c	2e/
1D	.	.	1f
.	2F/	2Bni\	.
=40	=40	=40	=40
0C	1G	1.c	2e/
.	.	.	2g/
.	1r	.	2a/
.	.	2d\	[2g/
=41	=41	=41	=41
1C	2r	1e	4g/]
.	.	.	4f/
.	2G/	.	4e/
.	.	.	4d/
1C	2A/	2r	1c
.	[2G/	2e\	.
=42	=42	=42	=42
0C	4G/]	4e\	1g
.	4F/	4d\	.
.	4E/	4c\	.
.	4D/	4B-\	.
.	2C/	1c	2e/
.	[2c\	.	[2a/
=43	=43	=43	=43
1r	2c\]	1r	4a/]
.	.	.	4g/
.	4B-\	.	1f
.	4A/	.	.
2r	1G	2r	.
2C/	.	2c\	2e/
=44	=44	=44	=44
1D	2r	2A/	1f
.	2F/	1B-	.
1E	1G	.	1r
.	.	2c\	.
=45	=45	=45	=45
1D	1A	0d	0r
2r	1G	.	.
2G\	.	.	.
=46	=46	=46	=46
2E\	2r	0r	0r
1F	2c\	.	.
.	2A/	.	.
4E\	2B-\	.	.
4D\	.	.	.
=47	=47	=47	=47
2C/	2.c\	1r	0r
2.F\	.	.	.
.	4B-\	.	.
.	4A/	2r	.
4E\	4G/	.	.
[2G\	[2B-\	[2e\	.
=48	=48	=48	=48
4G\]	2B-\]	4e\]	1r
4F\	.	4d\	.
2D\	1A	1d	.
1E	.	.	1g
.	2G/	2c#i\	.
=49	=49	=49	=49
1D	1A	0d	2.f/
.	.	.	4g/
1r	1r	.	4a/
.	.	.	4f/
.	.	.	[2b-\
=50	=50	=50	=50
0r	0r	0d	4b-\]
.	.	.	4a/
.	.	.	1a
.	.	.	4g/
.	.	.	4f/
=51	=51	=51	=51
1.C	0r	0c	2e/
.	.	.	1g
2FF/	.	.	2a/
=52	=52	=52	=52
0C	2r	0c	1g
.	2G/	.	.
.	2G/	.	2.e/
.	2A/	.	.
.	.	.	4f/
=53	=53	=53	=53
0C	1G	0c	4g/
.	.	.	4a/
.	.	.	2.g/
.	2C/	.	.
.	.	.	4f/
.	[2c\	.	4e/
.	.	.	4d/
=54	=54	=54	=54
0C	2c\]	0c	2c/
.	4B-\	.	1f
.	4A/	.	.
.	1G	.	.
.	.	.	2e/
=55	=55	=55	=55
1FF	1F	1c	1f
1r	1r	1r	1r
=56	=56	=56	=56
0F	0F	0c	0f
=57	=57	=57	=57
1F	1c	1f	1a
1F	1c	1f	1a
=58	=58	=58	=58
1BB-	1d	1f	1b-
1BB-	1d	1f	1b-
=59	=59	=59	=59
1F	1c	1f	1a
1C	1c	1e	1g
=60	=60	=60	=60
1G	1B-	1d	1g
1G	1B-	1e	1b-
=61	=61	=61	=61
1.F	1c	2f\	1.a
.	.	4e\	.
.	.	4d\	.
.	2A/	2c\	.
2E-i\	[2B-\	2G/	[2g/
=62	=62	=62	=62
1D	4B-\]	1B-	4g/]
.	4A/	.	4f/
.	2F/	.	1f
1C	1G	1c	.
.	.	.	2e/
=63	=63	=63	=63
[0FF	0F	[0A	1f
.	.	.	1r
=64	=64	=64	=64
0FF]	0r	0A]	1f
.	.	.	2f/
.	.	.	2g/
=65	=65	=65	=65
0r	1F	0r	2a/
.	.	.	2cc\
.	2F/	.	2cc\
.	2G/	.	2b-\
=66	=66	=66	=66
0r	2A/	0r	1a
.	2c\	.	.
.	2c\	.	2r
.	2B-\	.	2g/
=67	=67	=67	=67
0r	1A	0r	2a/
.	.	.	1cc
.	2r	.	.
.	2G/	.	2b-\
=68	=68	=68	=68
0r	2A/	0r	2a/
.	1c	.	4g/
.	.	.	4f/
.	.	.	2e/
.	2B-\	.	2d/
=69	=69	=69	=69
0r	2A/	0r	2.a/
.	1d	.	.
.	.	.	4g/
.	.	.	2f/
.	[2c\	.	2e/
=70	=70	=70	=70
0r	2c\]	1r	1d
.	2Bni\	.	.
.	1c	2r	1c
.	.	2c\	.
=71	=71	=71	=71
1r	0r	2.c\	0cc
.	.	4c\	.
2r	.	2A/	.
2F\	.	2A/	.
=72	=72	=72	=72
2.F\	0r	2c\	0r
.	.	2c\	.
4F\	.	.	.
2D\	.	1d	.
2D\	.	.	.
=73	=73	=73	=73
2F\	0r	2r	0r
2F\	.	2c\	.
1G	.	2B-\	.
.	.	[2G/	.
=74	=74	=74	=74
2E\	0r	2G/]	0r
2C/	.	1c	.
1D	.	.	.
.	.	2Bni\	.
=75	=75	=75	=75
0C	0r	0c	2r
.	.	.	2g/
.	.	.	2.g/
.	.	.	4g/
=76	=76	=76	=76
0r	2r	0r	2e/
.	2c\	.	2e/
.	2.c\	.	2g/
.	.	.	2g/
.	4c\	.	.
=77	=77	=77	=77
0r	2A/	0r	1a
.	2A/	.	.
.	2c\	.	2r
.	2c\	.	2g/
=78	=78	=78	=78
0r	1d	0r	2f/
.	.	.	1d
.	2B-\	.	.
.	2G/	.	[2g/
=79	=79	=79	=79
2r	1A	0r	2g/]
1F	.	.	2f/
.	1G	.	1g
2E\	.	.	.
=80	=80	=80	=80
1.F	1c	2.A/	1.a
.	.	4B-\	.
.	2A/	2c\	.
2BB-/	2B-\	2d\	4g/
.	.	.	4f/
=81	=81	=81	=81
2C/	2G/	2c\	2e/
2D\	2F/	2B-\	1f
1C	1G	1c	.
.	.	.	2e/
=82	=82	=82	=82
0FF	0F	0c	0f
=83	=83	=83	=83
1r	1r	1r	1r
[1F	[1c	[1f	[1a
=84	=84	=84	=84
2F\]	2c\]	2f\]	2a/]
2F\	2c\	2f\	2a/
1F	1c	1f	1a
=85	=85	=85	=85
1C	1c	1e	1g
1D	1A	[1d	[1f
=86	=86	=86	=86
1BB-	1B-	1d]	1f]
1C	1G	1c	1e
=87	=87	=87	=87
2r	2r	2r	2r
1GG	1G	1B-	1d
2GG/	2G/	2B-\	2d/
=88	=88	=88	=88
1AA	1E	1A	1c
2BB-/	2D/	2G/	2d/
2AA/	[2E/	[2A/	2c/
=89	=89	=89	=89
1BB-	2E/]	2A/]	1d
.	2D/	2G/	.
1AA	1E	1A	1c
=90	=90	=90	=90
1r	1r	1r	1r
1GG	1G	1B-	1d
=91	=91	=91	=91
1.C	1.G	1.c	1.e
2C/	2G/	2c\	2e/
=92	=92	=92	=92
1C	1G	1c	1e
[1C	[1G	[1c	[1e
=93	=93	=93	=93
2C/]	2G/]	2c\]	2e/]
2C/	2G/	2c\	2e/
1FF	1A	1c	1f
=94	=94	=94	=94
2r	2r	2r	2r
1C	1c	1e	1g
2C/	2c\	2e\	2g/
=95	=95	=95	=95
2C/	2G/	2e\	1g
1C	1c	1e	.
.	.	.	2g/
2C/	2c\	2e\	2g/
=96	=96	=96	=96
2C/	2G/	2e\	1g
1C	1c	1e	.
.	.	.	2g/
2C/	2c\	2e\	2g/
=97	=97	=97	=97
1C	2G/	2e\	2g/
.	2.c\	2e\	2g/
1F	.	4f\	4a/
.	4B-\	4e\	4g/
.	4A/	4d\	4f/
.	4G/	4c\	4e/
=98	=98	=98	=98
1F	1A	1d	1f
1C	1G	1c	1e
=99	=99	=99	=99
2C/	2r	2r	2r
2C/	2G/	2c\	2e/
2BB-/	2B-\	2d\	2.f/
2BB-/	2B-\	2d\	.
.	.	.	4e/
=100	=100	=100	=100
1C	2A/	2c\	2e/
.	2G/	2c\	2e/
2BB-/	1B-	1d	2.f/
2BB-/	.	.	.
.	.	.	4d/
=101	=101	=101	=101
1C	2A/	2c\	2e/
.	2G/	2c\	2e/
2BB-/	1B-	1d	1f
2BB-/	.	.	.
=102	=102	=102	=102
1F	1A	1c	2f/
.	.	.	2f/
2C/	2G/	2c\	2e/
[2F\	2F/	2A/	[2a/
=103	=103	=103	=103
2F\]	2A/	2c\	4a/]
.	.	.	4g/
2BB-/	2B-\	2d\	1f
1C	1G	1c	.
.	.	.	2e/
=104	=104	=104	=104
1FF	1F	1A	1f
1r	1r	1r	1r
=105	=105	=105	=105
0F	0F	0c	0f
=106	=106	=106	=106
1F	1c	1f	1a
1F	1c	1f	1a
=107	=107	=107	=107
1BB-	1d	1f	1b-
1BB-	1d	1f	1b-
=108	=108	=108	=108
1F	1c	1f	1a
1C	1c	1e	1g
=109	=109	=109	=109
1G	1B-	1d	1g
1G	1B-	1e	1b-
=110	=110	=110	=110
1.F	1c	2f\	1.a
.	.	4e\	.
.	.	4d\	.
.	2A/	2c\	.
2E-\	[2B-\	2G/	[2g/
=111	=111	=111	=111
1D	4B-\]	1B-	4g/]
.	4A/	.	4f/
.	2F/	.	1f
1C	1G	1c	.
.	.	.	2e/
=112	=112	=112	=112
0FFl	0Fl	0cl	0fl
!!LO:LB:i:g=z
=113||	=113||	=113||	=113||
!!section: Secunda pars: Christe, audi nos
!!!OMD: Secunda pars: Christe, audi nos
*M2/1	*M2/1	*M2/1	*M2/1
*met(C|)	*met(C|)	*met(C|)	*met(C|)
0FF	0F	0c	0a
=114	=114	=114	=114
0FF	0F	0c	0a
=115	=115	=115	=115
1FF	1F	0c	0a
[1FF	[1F	.	.
=116	=116	=116	=116
1FF]	1F]	1.c	0cc
1AA	1E	.	.
.	.	4B-\	.
.	.	4A/	.
=117	=117	=117	=117
0C	0E	1G	0cc
.	.	1A	.
=118	=118	=118	=118
1.BB-	[0F;l	0B-	1.dd
4AA/	.	.	4cc\
4GG/	.	.	4b-\
=119	=119	=119	=119
[0FF;l	0F_	[0c;l	[0a;l
=120	=120	=120	=120
0FF]	0F]	0c]	0a]
=121	=121	=121	=121
0C	0G	0c	0e
=122	=122	=122	=122
1C	1G	1c	1e
[1AA	[1A	[1c	[1e
=123	=123	=123	=123
2AA/]	2A/]	2c\]	2e/]
2C/	2G/	2c\	2e/
1C	2G/	1c	1e
.	[2c\	.	.
=124	=124	=124	=124
1r	2c\]	1r	1r
.	4B-\	.	.
.	4A/	.	.
1C	2G/	1c	1e
.	[2A/	.	.
=125	=125	=125	=125
1D	4A/]	1A	1f
.	4G/	.	.
.	4F/	.	.
.	4E/	.	.
1D	1F	1B-	1f
=126	=126	=126	=126
0C	1G	0c	1.e
.	2r	.	.
.	2A/	.	2f/
=127	=127	=127	=127
1C	2G/	1r	2g/
.	1c	.	1a
1AA	.	1c	.
.	4B-\	.	4g/
.	4A/	.	4f/
=128	=128	=128	=128
2C/	2G/	2c\	2e/
2D\	2F/	2B-\	1f
1C	1G	2c\	.
.	.	2c\	2e/
=129	=129	=129	=129
1FF	1F	0A	1f
1F	2r	.	1r
.	[2c\	.	.
=130	=130	=130	=130
2E\	2c\]	0r	0r
2D\	2B-\	.	.
1F	2A/	.	.
.	[2c\	.	.
=131	=131	=131	=131
1F	2c\]	0r	0r
.	2F/	.	.
1A	2r	.	.
.	2c\	.	.
=132	=132	=132	=132
2G\	2B-\	0r	0r
1F	2A/	.	.
.	1G	.	.
2E\	.	.	.
=133	=133	=133	=133
1F	0F	1c	0r
1r	.	2c\	.
.	.	2c\	.
=134	=134	=134	=134
0r	0r	1d	1f
.	.	2B-\	2f/
.	.	[2f\	2f/
=135	=135	=135	=135
0r	0r	2f\]	1g
.	.	2e\	.
.	.	2f\	1f
.	.	[2B-\	.
=136	=136	=136	=136
0r	0r	2B-\]	1b-
.	.	2.e-i\	.
.	.	.	1g
.	.	4d\	.
.	.	4c\	.
.	.	4B-\	.
=137	=137	=137	=137
0r	0r	2c\	1a
.	.	2d\	.
.	.	2G/	[1b-
.	.	[2d\	.
=138	=138	=138	=138
1G	1r	2d\]	1b-]
.	.	4c\	.
.	.	4B-\	.
1F	[1c	1f	1a
=139	=139	=139	=139
1C	1c]	1e	1g
[1D	1A	[1d	[1f
=140	=140	=140	=140
1D]	1B-	2d\]	2f/]
.	.	4c\	4e/
.	.	4B-\	4d/
1C	1c	2A/	1e
.	.	2G/	.
=141	=141	=141	=141
0C	0G	0c	0e
=142	=142	=142	=142
0FF 0F	0F	0c	0f
=143	=143	=143	=143
0F	0F	0c	0f
=144	=144	=144	=144
1F	1c	1f	1a
1F	1c	1f	1a
=145	=145	=145	=145
1BB-	1d	1f	1b-
1BB-	1d	1f	1b-
=146	=146	=146	=146
1F	1c	1f	1a
1C	1c	1e	1g
=147	=147	=147	=147
1G	1B-	1d	1g
1G	1B-	1e	1b-
=148	=148	=148	=148
1.F	1c	2f\	1.a
.	.	4e\	.
.	.	4d\	.
.	2A/	2c\	.
2E-i\	[2B-\	2G/	[2g/
=149	=149	=149	=149
1D	4B-\]	1B-	4g/]
.	4A/	.	4f/
.	2F/	.	1f
1C	1G	1c	.
.	.	.	2e/
=150	=150	=150	=150
[0FF	0F	2r	1f
.	.	2c\	.
.	.	2.c\	2r
.	.	.	2cc\
.	.	4B-\	.
=151	=151	=151	=151
0FF]	2r	2.A/	2.cc\
.	2c\	.	.
.	.	4G/	4b-\
.	2.c\	1F	2a/
.	.	.	2a/
.	4B-\	.	.
=152	=152	=152	=152
2r	1A	0r	1cc
2F\	.	.	.
2.F\	1c	.	2.a/
4E\	.	.	4g/
=153	=153	=153	=153
1D	0d	1r	1f
1F	.	2r	1a
.	.	2f\	.
=154	=154	=154	=154
1G	1r	2d\	1b-
.	.	2.e\	.
1C	[1c	.	1g
.	.	4d\	.
.	.	4c\	.
.	.	4B-\	.
=155	=155	=155	=155
2F\	2c\]	2A/	2a/
2G\	2B-\	1d	2g/
2D\	2A/	.	2f/
2E\	2G/	2c\	[2g/
=156	=156	=156	=156
1F	1A	1c	4g/]
.	.	.	4f/
.	.	.	1f
1C	1G	2r	.
.	.	2c\	2e/
=157	=157	=157	=157
0FF	1F	2.c\	2f/
.	.	.	2cc\
.	.	4B-\	.
.	2r	1A	2.cc\
.	2c\	.	.
.	.	.	4b-\
=158	=158	=158	=158
2r	2.c\	0r	1a
2F\	.	.	.
.	4B-\	.	.
2.F\	2A/	.	1r
.	2c\	.	.
4E\	.	.	.
=159	=159	=159	=159
2D\	1d	0r	0r
2F\	.	.	.
1G	2r	.	.
.	2B-\	.	.
=160	=160	=160	=160
2r	1c	0r	0r
2E\	.	.	.
2F\	2A/	.	.
2E\	2G/	.	.
=161	=161	=161	=161
2C/	1A	0r	0r
1F	.	.	.
.	1G	.	.
2E\	.	.	.
=162	=162	=162	=162
1F	0F	2r	1r
.	.	2c\	.
1FF	.	2.c\	2r
.	.	.	2cc\
.	.	4B-\	.
=163	=163	=163	=163
0FF	2r	2.A/	2.cc\
.	2c\	.	.
.	.	4G/	4b-\
.	2.c\	1F	2a/
.	.	.	2a/
.	4B-\	.	.
=164	=164	=164	=164
2r	1A	0r	1cc
2F\	.	.	.
2.F\	1c	.	2.a/
4E\	.	.	4g/
=165	=165	=165	=165
1D	0d	1r	1f
1F	.	2r	1a
.	.	[2f\	.
=166	=166	=166	=166
0G	1r	2f\]	1.b-
.	.	4e\	.
.	.	4d\	.
.	1B-	1e	.
.	.	.	4a/
.	.	.	4g/
=167	=167	=167	=167
1.F	2.c\	2.f\	2.a/
.	4B-\	4e\	4g/
.	2A/	2d\	2f/
2C/	[2G/	[2c\	2e/
=168	=168	=168	=168
2E-i\	2G/]	2c\]	2g/
2D\	1F	1B-	2d/
2C/	.	.	1e
2C/	2E/	2A/	.
=169	=169	=169	=169
0BB-	0F	1B-	0d
.	.	1r	.
=170	=170	=170	=170
0r	0r	2.B-\	1r
.	.	4B-\	.
.	.	2B-\	2.b-\
.	.	2B-\	.
.	.	.	4b-\
=171	=171	=171	=171
0r	0r	2G/	2b-\
.	.	2G/	2b-\
.	.	2B-\	2g/
.	.	2c\	2g/
=172	=172	=172	=172
0r	1r	1d	2b-\
.	.	.	2b-\
.	2.c\	1r	1cc
.	4B-\	.	.
=173	=173	=173	=173
2.F\	2.A/	0r	0r
4E\	4G/	.	.
2D\	2.A/	.	.
2C/	.	.	.
.	4G/	.	.
=174	=174	=174	=174
2.D\	1F	1r	0r
4C/	.	.	.
1BB-	1r	2B-\	.
.	.	2B-\	.
=175	=175	=175	=175
0r	0r	2G/	2b-\
.	.	2G/	2b-\
.	.	2B-\	2g/
.	.	2c\	2g/
=176	=176	=176	=176
0r	1r	1d	2b-\
.	.	.	2b-\
.	2.c\	1r	1cc
.	4B-\	.	.
=177	=177	=177	=177
2.F\	2.A/	0r	0r
4E\	4G/	.	.
2D\	2.A/	.	.
2C/	.	.	.
.	4G/	.	.
=178	=178	=178	=178
2.D\	1F	1r	0r
4C/	.	.	.
1BB-	1r	2B-\	.
.	.	2B-\	.
=179	=179	=179	=179
0r	0r	2G/	2.b-\
.	.	2G/	.
.	.	.	4b-\
.	.	2B-\	2g/
.	.	2c\	2g/
=180	=180	=180	=180
0r	1r	1d	2b-\
.	.	.	2b-\
.	2.c\	1r	1cc
.	4B-\	.	.
=181	=181	=181	=181
2.F\	2A/	0r	0r
.	2G/	.	.
4E\	.	.	.
2D\	2.A/	.	.
2C/	.	.	.
.	4G/	.	.
=182	=182	=182	=182
2.D\	1F	2.f\	0r
4C/	.	4e\	.
1BB-	1r	1d	.
=183	=183	=183	=183
2r	1.c	1c	2.cc\
1F	.	.	.
.	.	.	4b-\
.	.	2f\	2a/
2C/	2c\	2e\	2g/
=184	=184	=184	=184
2F\	2c\	2f\	2a/
2C/	2c\	2e\	2.g/
1F	1A	2c\	.
.	.	.	4f/
.	.	2d\	[2f/
=185	=185	=185	=185
1C	1G	1c	2f/]
.	.	.	2e/
1D	1F	1A	1f
=186	=186	=186	=186
1BB-	2r	0r	0r
.	1B-	.	.
2r	.	.	.
[2F\	2A/	.	.
=187	=187	=187	=187
2F\]	1c	0r	0r
2E\	.	.	.
1G	1d	.	.
=188	=188	=188	=188
2A\	2.c\	0r	0r
1F	.	.	.
.	4B-\	.	.
.	2A/	.	.
2E\	2G/	.	.
=189	=189	=189	=189
2D\	2F/	0r	0r
2C/	2A/	.	.
2D\	1B-	.	.
2E\	.	.	.
=190	=190	=190	=190
1F	2r	0r	1f
.	2A/	.	.
1r	2B-\	.	1f
.	[2d\	.	.
=191	=191	=191	=191
0r	2d\]	0r	1f
.	4c\	.	.
.	4B-\	.	.
.	2A/	.	1f
.	2B-\	.	.
=192	=192	=192	=192
0r	2.c\	0r	0e
.	4B-\	.	.
.	4A/	.	.
.	4G/	.	.
.	[2c\	.	.
=193	=193	=193	=193
0r	2c\]	0r	0g
.	4B-\	.	.
.	4A/	.	.
.	2B-\	.	.
.	2c\	.	.
=194	=194	=194	=194
1r	1F	2.f\	0a
.	.	4e\	.
2.F\	1r	2d\	.
.	.	2c\	.
4E\	.	.	.
=195	=195	=195	=195
2D\	1r	2d\	1a
2C/	.	2e\	.
2.D\	2.F/	2f\	1a
.	.	4e\	.
4E\	4G/	4d\	.
=196	=196	=196	=196
1F	4A/	[0c	1.a
.	4B-\	.	.
.	1c	.	.
1FF	.	.	.
.	4B-\	.	4g/
.	4A/	.	4f/
=197	=197	=197	=197
0C	4G/	0c]	2e/
.	4F/	.	.
.	2A/	.	1f
.	1G	.	.
.	.	.	2e/
=198	=198	=198	=198
1FF	1F	1A	1f
2r	2r	2r	2r
2BB-/	2F/	2B-\	2d/
=199	=199	=199	=199
1BB-	1F	1B-	1d
1BB-	1F	1B-	1d
=200	=200	=200	=200
1BB-	1F	1B-	1d
1FF	1F	1A	1c
=201	=201	=201	=201
2BB-/	2F/	0r	0r
2BB-/	2F/	.	.
1D	1F	.	.
=202	=202	=202	=202
1BB-	1F	2r	2r
.	.	2B-\	2f/
1r	1r	2d\	2f/
.	.	2d\	2f/
=203	=203	=203	=203
2r	2r	1B-	1f
2BB-/	2F/	.	.
2D\	2F/	1r	1r
2D\	2F/	.	.
=204	=204	=204	=204
1BB-	1F	2r	2r
.	.	2B-\	2f/
1r	1r	2d\	2f/
.	.	2d\	2f/
=205	=205	=205	=205
2r	2r	1B-	1f
2BB-/	2F/	.	.
2D\	2F/	1r	1r
2D\	2F/	.	.
=206	=206	=206	=206
1BB-	1F	1r	1r
1BB-	1B-	1d	1f
=207	=207	=207	=207
1BB-	1B-	1d	1f
2r	2r	2r	2r
2BB-/	2B-\	2d\	2f/
=208	=208	=208	=208
1BB-	1B-	1d	1f
1BB-	1B-	1d	1f
=209	=209	=209	=209
2r	2r	2r	2r
2BB-/	2F/	2B-\	2d/
1D	1F	1A	1f
=210	=210	=210	=210
2BB-/	2F/	2B-\	2d/
2BB-/	2F/	2B-\	2d/
2D\	2F/	2A/	2f/
2D\	2F/	2A/	2f/
=211	=211	=211	=211
2BB-/	2F/	2B-\	2d/
2BB-/	2F/	2B-\	2d/
1BB-	1F	1B-	1d
=212	=212	=212	=212
1FF	1F	1A	1c
2r	2r	2r	2r
2FF/	2F/	2c\	2a/
=213	=213	=213	=213
1FF	1F	1c	1a
1FF	1F	1c	1a
=214	=214	=214	=214
1BB-	1F	1B-	1d
1C	1E	1G	2e/
.	.	.	[2g/
=215	=215	=215	=215
0C	0G	0c	4g/]
.	.	.	4f/
.	.	.	4e/
.	.	.	4d/
.	.	.	1e
=216	=216	=216	=216
0FF	0A	0c	1f
.	.	.	2.f/
.	.	.	4e/
=217	=217	=217	=217
2.F\	1.A	2r	2d/
.	.	1f	2c/
4E\	.	.	.
2D\	.	.	2d/
2C/	2A/	2e\	2e/
=218	=218	=218	=218
2.D\	1A	1d	2.f/
4E\	.	.	4g/
1F	1A	1d	2a/
.	.	.	4g/
.	.	.	4f/
=219	=219	=219	=219
0C	1G	1c	2e/
.	.	.	1f
.	1G	1c	.
.	.	.	2e/
=220	=220	=220	=220
0FF	0F	0A	0f
=221	=221	=221	=221
1r	1r	1r	1r
1F	1F	1c	1a
=222	=222	=222	=222
1F	1c	1f	1a
1F	1c	1f	1a
=223	=223	=223	=223
1BB-	1d	1f	1b-
1BB-	1d	1f	1b-
=224	=224	=224	=224
1F	1c	1f	1a
1C	1c	1e	1g
=225	=225	=225	=225
1G	1B-	1d	1g
1G	1B-	1e	1b-
=226	=226	=226	=226
1.F	1c	2f\	1.a
.	.	4e\	.
.	.	4d\	.
.	2A/	2c\	.
2E-i\	[2B-\	2G/	[2g/
=227	=227	=227	=227
1D	4B-\]	1B-	4g/]
.	4A/	.	4f/
.	2F/	.	1f
1C	1G	1c	.
.	.	.	2e/
=228	=228	=228	=228
1FF	[0F	0c	1f
[1F	.	.	2a/
.	.	.	[2cc\
=229	=229	=229	=229
1F]	0F]	1A	4cc\]
.	.	.	4b-\
.	.	.	1a
1D	.	1B-	.
.	.	.	4g/
.	.	.	4f/
=230	=230	=230	=230
[0C;l	[0G;l	[0c;l	[0e;l
=231	=231	=231	=231
0C]	0G]	0c]	0e]
=232	=232	=232	=232
0FFl	0Fl	0cl	0fl
==	==	==	==
*-	*-	*-	*-
!!!RDF**kern: %=rational rhythm
!!!rscale-alt: 1/2
!!!RDF**kern: V=start of tuplet marker
!!!RDF**kern: Z=end of tuplet marker
!!!RDF**kern: l=long note in original notation
!!!RDF**kern: i=editorial accidental
!!!ENC:	Will Watson 14/07/2011
!!!END:	2011/07/14/
!!!EED:	Jesse Rodin
!!!EEV:	2011/11/02/
!!attribution-level@Jos: 5 (doubtful)
!!!ONB:	Translated from MusicXML and edited on 2011/11/02/ by Craig Sapp
!!muse2ps: u^(2) @{OTL2}^C^@{COA}?\n@{SCT}^i2I150v90,90,90,150c90Q16
